svg/fluentui-system-icons/ic_fluent_voicemail_arrow_forward_20_regular.svg

<svg width="20" height="20" viewBox="0 0 20 20" fill="none" xmlns="http://www.w3.org/2000/svg">
<path d="M8.73244 9C8.90261 9.29417 9 9.63571 9 10C9 11.1046 8.10457 12 7 12C5.89543 12 5 11.1046 5 10C5 8.89543 5.89543 8 7 8H13C13.7423 8 14.3902 8.40442 14.7353 9.00494C14.6573 9.00166 14.5788 9 14.5 9C14.1376 9 13.7833 9.03506 13.4404 9.10197C13.3076 9.03667 13.1581 9 13 9C12.6114 9 12.2745 9.22169 12.109 9.5455C11.716 9.73553 11.349 9.97094 11.0148 10.2449C11.005 10.1647 11 10.0829 11 10C11 9.63571 11.0974 9.29417 11.2676 9H8.73244ZM6 10C6 10.5523 6.44772 11 7 11C7.55228 11 8 10.5523 8 10C8 9.44772 7.55228 9 7 9C6.44772 9 6 9.44772 6 10ZM17 6V9.59971C17.3578 9.78261 17.6929 10.0035 18 10.2572V6C18 4.89543 17.1046 4 16 4H4C2.89543 4 2 4.89543 2 6V14C2 15.1046 2.89543 16 4 16H9.20703C9.11588 15.6777 9.05337 15.3434 9.02242 15H4C3.44772 15 3 14.5523 3 14V6C3 5.44772 3.44772 5 4 5H16C16.5523 5 17 5.44772 17 6ZM10 14.5C10 16.9853 12.0147 19 14.5 19C16.9853 19 19 16.9853 19 14.5C19 12.0147 16.9853 10 14.5 10C12.0147 10 10 12.0147 10 14.5ZM15.3964 11.8964C15.5917 11.7012 15.9083 11.7012 16.1036 11.8964L17.8536 13.6464C17.9015 13.6944 17.9377 13.7496 17.9621 13.8086C17.9865 13.8676 18 13.9322 18 14C18 14.0678 17.9865 14.1324 17.9621 14.1914C17.938 14.2495 17.9026 14.304 17.8557 14.3514L16.1036 16.1036C15.9083 16.2988 15.5917 16.2988 15.3964 16.1036C15.2012 15.9083 15.2012 15.5917 15.3964 15.3964L16.2929 14.5H14.75C13.7835 14.5 13 15.2835 13 16.25V16.5C13 16.7761 12.7761 17 12.5 17C12.2239 17 12 16.7761 12 16.5V16.25C12 14.7312 13.2312 13.5 14.75 13.5H16.2929L15.3964 12.6036C15.2012 12.4083 15.2012 12.0917 15.3964 11.8964Z" fill="#212121"/>
</svg>

<svg xmlns="http://www.w3.org/2000/svg" width="20" height="20"><path d="M8.732 9A2 2 0 1 1 7 8h6a2 2 0 0 1 1.735 1.005 5.602 5.602 0 0 0-1.295.097 1 1 0 0 0-1.331.444 5.51 5.51 0 0 0-1.094.699A2.02 2.02 0 0 1 11.268 9H8.732ZM6 10a1 1 0 1 0 2 0 1 1 0 0 0-2 0Zm11-4v3.6c.358.183.693.404 1 .657V6a2 2 0 0 0-2-2H4a2 2 0 0 0-2 2v8a2 2 0 0 0 2 2h5.207a5.48 5.48 0 0 1-.185-1H4a1 1 0 0 1-1-1V6a1 1 0 0 1 1-1h12a1 1 0 0 1 1 1Zm-7 8.5a4.5 4.5 0 1 0 9 0 4.5 4.5 0 0 0-9 0Zm5.396-2.604a.5.5 0 0 1 .708 0l1.75 1.75a.5.5 0 0 1 .002.705l-1.752 1.753a.5.5 0 0 1-.708-.708l.897-.896H14.75A1.75 1.75 0 0 0 13 16.25v.25a.5.5 0 0 1-1 0v-.25a2.75 2.75 0 0 1 2.75-2.75h1.543l-.897-.896a.5.5 0 0 1 0-.708Z"/></svg>
